src/assets/background/bubbles/about_2.svg

<svg width="1221" height="1213" viewBox="0 0 1221 1213" fill="none" xmlns="http://www.w3.org/2000/svg">
<path d="M323.643 61.3056C215.035 -19.8606 80.8389 -3.64424 -2 15.8832V1213H697.997C975.379 1117.91 1019.13 1053.38 1092.2 907.353C1119.71 852.365 1141.81 608.498 1075.06 510.437C995.077 392.943 746.708 352.944 622.675 330.869C518.948 312.409 459.402 162.763 323.643 61.3056Z" fill="url(#paint0_linear_162_23)"/>
<path d="M353.273 108.779C234.783 30.958 88.3765 46.506 -2 65.2285V1213H761.689C1064.31 1121.83 1112.04 1059.96 1191.76 919.952C1221.77 867.23 1245.88 633.416 1173.06 539.396C1085.8 426.746 814.833 388.395 679.514 367.231C566.349 349.531 501.385 206.054 353.273 108.779Z" fill="url(#paint1_linear_162_23)"/>
<defs>
<linearGradient id="paint0_linear_162_23" x1="348.623" y1="211.526" x2="1468.67" y2="542.49" gradientUnits="userSpaceOnUse">
<stop stop-color="#F6F7FF"/>
<stop offset="0.869792" stop-color="white" stop-opacity="0"/>
</linearGradient>
<linearGradient id="paint1_linear_162_23" x1="577.516" y1="51.4796" x2="577.516" y2="1213" gradientUnits="userSpaceOnUse">
<stop stop-color="#E5E8FF"/>
<stop offset="0.661458" stop-color="white" stop-opacity="0"/>
</linearGradient>
</defs>
</svg>

<svg width="1221" height="1213" fill="none" xmlns="http://www.w3.org/2000/svg">
	<path d="M323.643 61.306C215.035-19.861 80.839-3.644-2 15.883V1213h699.997c277.382-95.09 321.133-159.62 394.203-305.647 27.51-54.988 49.61-298.855-17.14-396.916-79.983-117.494-328.352-157.493-452.385-179.568-103.727-18.46-163.273-168.106-299.032-269.563Z" fill="url(#a)"/>
	<path d="M353.273 108.779C234.783 30.958 88.376 46.506-2 65.229V1213h763.689c302.621-91.17 350.351-153.04 430.071-293.048 30.01-52.722 54.12-286.536-18.7-380.556-87.26-112.65-358.227-151.001-493.546-172.165-113.165-17.7-178.129-161.177-326.241-258.452Z" fill="url(#b)"/>
	<defs>
		<linearGradient id="a" x1="348.623" y1="211.526" x2="1468.67" y2="542.49" gradientUnits="userSpaceOnUse">
			<stop stop-color="#F6F7FF"/>
			<stop offset=".87" stop-color="#fff" stop-opacity="0"/>
		</linearGradient>
		<linearGradient id="b" x1="577.516" y1="51.48" x2="577.516" y2="1213" gradientUnits="userSpaceOnUse">
			<stop stop-color="#E5E8FF"/>
			<stop offset=".661" stop-color="#fff" stop-opacity="0"/>
		</linearGradient>
	</defs>
</svg>
